X:36
T:Gloria RV 589 - Et in terra pax
C:Vivaldi, A.
M:4/4
L:1/8
Q:1/4=66
K:D
|:D2|F4 GA Bc|d4 c2 B2|A4 Bc de|f4 e2 d2|
G4 AB cd|e4 d2 c2|B4 AG FE|D4 D2:|

